X: 15900
T: Grainne's Grace
R: waltz
M: 3/4
K: Dmajor
|:FG|A4 FA|d2 c3 A|(G6|G4) EF|G4 AB|
c2 A3 G|(F6|F4) DE|F6|B,4 CD|
[1(E6|E4) B,A,|(G,4 G,) A,|B,C D3 F|E2 B,3 D|C4:|
[2 E6|B,4 CD|D6|C6|(D6|D3) d dc||
|:A4 dc|F4 cB|(E6|E4) GF|E2 e3 f|
e2 B3 d|d6|c4 dc|B4 B,2|B,4 CD|E6|G,4 A,B,|
B,C D4|D4 C2|1 (D6|D3) d dc:|2 (D6|D4) FG||

